src/main/resources/img/object/role/Roles.svg

<svg width="16" height="16" version="1.1" viewBox="0 0 16 16"  xmlns="http://www.w3.org/2000/svg"><path d="m6 0v4.5c0.43906-0.033594 1-0.1 1.4-0.3v-1.2l3.6-9e-6v5.8008c0.7 0 1.4-0.40117 2-1.2012l1 0.80078c-0.90111 1.1014-1.9526 1.6518-3.0039 1.6504 0.0039 0.94923 0.0039 1.5492 0.00391 1.9493 3.3084 0 5-1.7766 5-5.1992v-6.8008c-3 2-7 2-10 0zm6 3h2.4v1.4l-2.4 4e-4z" fill="#59a869" stroke-width=".049828"/><path d="m0 10.8c0 3.4226 1.6916 5.2 5 5.2s5-1.7774 5-5.2v-6.8c-3 2-7 2-10 0zm8.4-3.8v1.4h-2.4v-1.4zm-1.4 4.6 1 0.8c-1.8 2.2-4.2 2.2-6 0l1-0.8c1.2 1.6 2.8 1.6 4 0zm-5.6-4.6h2.6v1.4h-2.6z" fill="#59a869" stroke-width=".049828"/></svg>

<svg width="16" height="16" xmlns="http://www.w3.org/2000/svg"><path d="M6 0v4.5c.44-.034 1-.1 1.4-.3V3H11v5.8c.7 0 1.4-.4 2-1.2l1 .8c-.901 1.102-1.953 1.652-3.004 1.65C11 11 11 11.6 11 12c3.308 0 5-1.777 5-5.2V0C13 2 9 2 6 0zm6 3h2.4v1.4H12z" fill="#59a869"/><path d="M0 10.8C0 14.223 1.692 16 5 16s5-1.777 5-5.2V4C7 6 3 6 0 4zM8.4 7v1.4H6V7zM7 11.6l1 .8c-1.8 2.2-4.2 2.2-6 0l1-.8c1.2 1.6 2.8 1.6 4 0zM1.4 7H4v1.4H1.4z" fill="#59a869"/></svg>
